X: 38527
T: Step It Out Joe
R: barndance
M: 4/4
K: Gmajor
DE|:G2 (3GGG G2 DE|GABc dBdB|A2 (3AAA A2 gA|(3AAA eg gedB|
G2 (3GGG GEDE|GABd dBdB|A2 (3Bcd e2 af|1 gedB AEDE:|2 gedB BA A2||
abaf g3e|dBAd BE (3EEE|GEDE GABd|dBdB A2 (3Bcd|
[1eaaf g3e|dBAG E4|DEGA B2 (3ddB|dBAB G4:|
[2eaab gabg|agef gfga|bage ageg|dBAd BE (3EED||

